T: Lochiel's Awa' Tae France
M: 4/4
L: 1/8
K: Ador
eA A/A/A e2 dc | BG G/G/G Bddg | eA A/A/A e2 dc | BGAB gee :|dega bgab | gd d/d/d gddg | dega bgab | ge e/e/e geeg |dega bgab | gd d/d/d gddg | bgae degB | BA A/A/A gee ||
